X: 83
T: No_21_Feather_Meal_Give_Me_to_Drink.krn
N: Derived from No_21_Feather_Meal_Give_Me_to_Drink.krn
%%abc-version 2.0
%%abcx-abcm2ps-target-version 5.9.1 (29 Sep 2008)
%%abc-creator hum2abc beta
%%abcx-conversion-date 2019/03/15 08:37:56
%%humdrum-veritas 3497014546
%%humdrum-veritas-data 4281675468
%%linebreak <none>
%%barnumbers 0
L: 1/8
M: 2/4
K: Gb clef=bass
[K:clef=bass][M:2/4]E,2B,3/G,/ | 
B,2F,2 | 
(3G,F,E, (3E,E,E, | 
E,4 | 
G,2(B,3/G,/) | 
B,2F,2 | 
(3G,F,E, (3E,E,E, | 
E,4 | 
F,3E, | 
(3F,E,E, E,3/F,/ ||  
[M:3/4](3F,E,E, E,3/E,/E,2 ||  
[M:2/4]E,4 | 
F,3E, | 
(3F,E,E, E,3/F,/ ||  
[M:3/4](3F,E,E, E,3/E,/E,2 | 
E,6 |]  



